X:1
T:Herongate, LM
T:Herongate, LM
T:Traditional English Melody
T:Public Domain Courtesy of the Cyber Hymnal™
C:Traditional English Melody
Z:Public Domain
Z:Courtesy of the Cyber Hymnal™
%%score ( 1 2 ) ( 3 4 )
L:1/8
Q:1/4=125
M:3/4
K:Eb
V:1 treble 
V:2 treble 
V:3 bass 
V:4 bass 
V:1
 [EB]2 | [EB]4 E2 | [Ec]4 [EB]2 | (B2 G2) [DF]2 | E4 [EB]2 | [Ee]4 [Ee]2 | [EG]4 [EB]2 | %7
 (c2 B2) [Ec]2 | [DB]4 [EB]2 | (c2 B2) [Ec]2 | (e2 d2) [Dc]2 | (B2 G2) [DF]2 | E4 E2 | [DG]4 E2 | %14
 [Ec]4 [EB]2 | (B2 G2) [DF]2 | E4 |] %17
V:2
 x2 | x4 E2 | x6 | D4 x2 | E4 x2 | x6 | x6 | E4 x2 | x6 | E4 x2 | A4 x2 | E4 x2 | E4 E2 | x4 E2 | %14
 x6 | D4 x2 | E4 |] %17
V:3
 [E,G,]2 | [E,G,]4 [G,B,]2 | A,4 [G,B,]2 | [B,,B,]4 [B,,A,]2 | [E,G,]4 [E,G,]2 | [G,B,]4 [G,B,]2 | %6
 [G,B,]4 [G,B,]2 | [F,B,]4 [F,=A,]2 | B,4 [G,B,]2 | A,4 A,2 | [F,C]4 [F,A,]2 | [G,B,]4 [B,,A,]2 | %12
 [C,G,]4 [C,G,]2 | [B,,G,]4 [C,G,]2 | [A,,A,]4 [G,,B,]2 | [B,,B,]4 [B,,A,]2 | [E,G,]4 |] %17
V:4
 x2 | x6 | A,4 x2 | x6 | x6 | x6 | x6 | x6 | B,4 x2 | A,4 A,2 | x6 | x6 | x6 | x6 | x6 | x6 | x4 |] %17

